X:1
T:Je me pleing
T:Je ne cuit pas
T:Ballade 14
T:Guillaume de Machaut
C:Gui
%%score 1 2
L:1/8
M:3/4
K:C
V:1 alto nm="Viola"
V:2 tenor nm="Tenor"
V:1
 E2 F E2 D | D2 CD CD | E4 CD | E2 z2 E^F | G2 F E2 D | ^C2 ED =C_B, | A,2 A,2 z2 | _B,2 A,4 | %8
w: Je ne * *|cuit * * * *|pas * *|* qu'on- *|ques a * *|cre- a- * * *|tu- re|A- *|
w: comme a * *|moy * * * *|seule * *|* et *|de sa * *|gra- ce * * *|pu- re;|nom *|
 _B,2 G,4 | z D CD CD | E2 E D2 C | D2 z2 E^F | G2 FE FD | E4 z2 | F2 E4 | F2 E4 | z E FE FD |1 %17
w: ||mour par- * *|tist ses *|biens si * * *|lar-||||
w: ||pas qu'ai- * *|e des- *|ser- vi * * *|nul-||||
 ^C2 D2 =CD || E2 z2 CD | E6 :|2 ED ^CD E2 || D6 || A2 A G2 F | E F E2 D2 | ^CD ED =C D | %25
w: * ge- * *|ment * *||||les dou- * *|ceurs qu'el- le me|fait, car ga- * * ri|
w: |||* * le- * *|ment||||
 E2 z2 C D | E2 z2 A, A, | A,2 C B,2 A, | ^C2 D C2 B, | D2 z2 DE | F2 FG FG | A2 _BA GF | %32
w: m'a de tous|maulz et re-|trais, quant * *|el- le * *|m'a don- *|né, sans * * *|re- tol- * * *|
w: |||||||
 F2 ED E2- | E6 || A2 GF E F | D2 z D EF | AG FE FD | E2 z2 E^F | G2 FE FD | ED ^CD E2 | D6 |] %41
w: lir, * * *||mon * * cuer, m'a-|mour * et *|quan- * que * * *|je * *||* * * * de-|sir|
w: |||||||||
V:2
 A,6 | _B,6 | A,6 | A,6 | G,2 _B,4 | A,2 G,4 | ^F,6 | G,2 F,4 | G,A, _B,4 | C z DC D_B, | A,6 | %11
 _B,2 A,4 | G,2 DC D=B, | ^C6 | D2 C4 | z2 _B,2 A,2 | G,2 F,2 G,2 |1 A,2 _B,4 || z2 A,A, A,2 | %19
 A,6 :|2 z A, =B,2 A,2 || D,6 || D,6 | G,6 | A,2 _B,4 | z2 F,G, A,2 | z2 F,G, A,2 | %27
 z A, A,G, A,F, | E,6 | D,2 G,4 | F,4 E,2 | D,6 | A,6- | A,6 || F,2 G,4 | z2 A,4 | G,2 _B,4 | %37
 z A, C=B, CA, | G,6 | z A, =B,2 A,2 | D,6 |] %41

